assets/images/svg/provider-app.svg

<svg width="24" height="24" viewBox="0 0 24 24" fill="none" xmlns="http://www.w3.org/2000/svg">
<g clip-path="url(#clip0_432_13039)">
<mask id="mask0_432_13039" style="mask-type:luminance" maskUnits="userSpaceOnUse" x="0" y="0" width="24" height="24">
<path d="M24 0H0V24H24V0Z" fill="white"/>
</mask>
<g mask="url(#mask0_432_13039)">
<path d="M6.375 15.797L6.4238 15.7676C8.30629 14.634 10.664 14.6453 12.5354 15.797C12.5354 15.797 13.7897 15.797 14.8797 15.7969C15.6562 15.7969 16.2855 16.4263 16.2855 17.2027C16.2854 17.9798 15.6553 18.6106 14.8782 18.6104L11.5979 18.6095H16.1521C16.4598 18.6096 16.7645 18.5491 17.0487 18.4314C17.333 18.3137 17.5913 18.1411 17.8089 17.9235C18.8219 16.9105 19.8349 15.8974 20.8478 14.8843C21.2631 14.4689 21.8936 14.3546 22.4279 14.5988C23.3205 15.0067 23.5313 16.1804 22.8366 16.8736L19.237 20.4646C18.6089 21.0912 17.8159 21.5267 16.9501 21.7205C13.695 22.4489 10.3149 22.407 7.07892 21.598L6.375 21.422" stroke="#F58218" stroke-width="1.3" stroke-miterlimit="10" stroke-linecap="round" stroke-linejoin="round"/>
<path d="M0.75 13.9219H6.37498V23.2969H0.75V13.9219Z" stroke="#F58218" stroke-width="1.3" stroke-miterlimit="10" stroke-linecap="round" stroke-linejoin="round"/>
<path d="M12.0002 8.20311C10.9647 8.20311 10.1252 7.36362 10.1252 6.32811C10.1252 5.29255 10.9647 4.45312 12.0002 4.45312C13.0358 4.45312 13.8752 5.29255 13.8752 6.32811C13.8752 7.36362 13.0358 8.20311 12.0002 8.20311ZM16.6877 6.32811C16.6877 5.97852 16.6465 5.63905 16.5739 5.3113L17.5748 4.73343L16.1685 2.29781L15.1648 2.87723C14.6652 2.41889 14.0693 2.06409 13.4065 1.85592V0.703125H10.594V1.85592C9.93127 2.06409 9.3353 2.41889 8.83571 2.87723L7.83202 2.29781L6.42578 4.73343L7.42656 5.3113C7.35399 5.63905 7.31279 5.97852 7.31279 6.32811C7.31279 6.6777 7.35399 7.01717 7.42656 7.34492L6.42578 7.92279L7.83202 10.3584L8.83571 9.77895C9.3353 10.2374 9.93127 10.5922 10.594 10.8003V11.9531H13.4065V10.8003C14.0692 10.5922 14.6652 10.2374 15.1648 9.77895L16.1685 10.3584L17.5748 7.92279L16.5739 7.34492C16.6465 7.01717 16.6877 6.6777 16.6877 6.32811Z" stroke="#F58218" stroke-width="1.3" stroke-miterlimit="10" stroke-linecap="round" stroke-linejoin="round"/>
</g>
</g>
<defs>
<clipPath id="clip0_432_13039">
<rect width="24" height="24" fill="white"/>
</clipPath>
</defs>
</svg>

<svg xmlns="http://www.w3.org/2000/svg" width="24" height="24" fill="none" viewBox="0 0 24 24"><g clip-path="url(#a)"><mask id="b" width="24" height="24" x="0" y="0" maskUnits="userSpaceOnUse" style="mask-type:luminance"><path fill="#fff" d="M24 0H0v24h24z"/></mask><g stroke="#f58218" stroke-linecap="round" stroke-linejoin="round" stroke-miterlimit="10" stroke-width="1.3" mask="url(#b)"><path d="m6.375 15.797.049-.03a5.88 5.88 0 0 1 6.111.03h2.345a1.406 1.406 0 1 1-.002 2.813h-3.28 4.554a2.34 2.34 0 0 0 1.657-.686l3.039-3.04a1.406 1.406 0 1 1 1.989 1.99l-3.6 3.59a4.7 4.7 0 0 1-2.287 1.257 21.4 21.4 0 0 1-9.871-.123l-.704-.176M.75 13.922h5.625v9.375H.75zM12 8.203a1.875 1.875 0 1 1 0-3.75 1.875 1.875 0 0 1 0 3.75m4.688-1.875c0-.35-.041-.689-.114-1.017l1-.578-1.405-2.435-1.004.58a4.7 4.7 0 0 0-1.758-1.022V.703h-2.813v1.153a4.7 4.7 0 0 0-1.758 1.021l-1.004-.58-1.406 2.436 1 .578a4.7 4.7 0 0 0-.113 1.017c0 .35.041.69.114 1.017l-1.001.578 1.406 2.435 1.004-.58c.5.46 1.095.814 1.758 1.022v1.153h2.813V10.8a4.7 4.7 0 0 0 1.758-1.021l1.004.58 1.406-2.436-1.001-.578c.072-.328.114-.667.114-1.017"/></g></g><defs><clipPath id="a"><path fill="#fff" d="M0 0h24v24H0z"/></clipPath></defs></svg>
